; generated by SuperSlicer 2.5.59.8 on 2024-03-06 at 19:10:13 UTC


;
;

;
;
; TODO: check the size of the extruder and the y-bar clearance. Optimize & test supports.

; external perimeters extrusion width = 0.56mm
; perimeters extrusion width = 0.56mm
; infill extrusion width = 0.56mm
; solid infill extrusion width = 0.56mm
; top infill extrusion width = 0.56mm
; first layer extrusion width = 0.56mm

; object:{"name":"EM_Cube-Unlabeled","id":"EM_Cube-Unlabeled.stl id:0 copy 0","object_center":[150.000000,150.000000,0.000000],"boundingbox_center":[150.000000,150.000000,1.500000],"boundingbox_size":[30.000000,30.000000,3.000000]}
EXCLUDE_OBJECT_DEFINE NAME=EM_Cube_Unlabeled_stl_id_0_copy_0 CENTER=150.000000,150.000000 POLYGON=[[135.00,135.00],[165.00,135.00],[165.00,165.00],[135.00,165.00],[135.00,135.00]]
; plater:{"center":[150.000000,150.000000,0.000000],"boundingbox_center":[150.000000,150.000000,1.500000],"boundingbox_size":[30.000000,30.000000,3.000000]}

M73 P0 R8
M107
;TYPE:Custom
M190 S0
M109 S0 ; uncomment to remove set&wait temp gcode added automatically after this start gcode
m117
print_start EXTRUDER=205 BED=60 CHAMBER=0

M107
G21 ; set units to millimeters
G90 ; use absolute coordinates
M83 ; use relative distances for extrusion
ACTIVATE_EXTRUDER EXTRUDER=extruder
; Filament gcode
; Macro syntax: https://help.prusa3d.com/article/macros_1775

; Set pressure advance per-filament
;SET_PRESSURE_ADVANCE ADVANCE=0.0x

; Set pressure advance per-filament for different nozzle sizes
;SET_PRESSURE_ADVANCE ADVANCE=0.0x
;

;LAYER_CHANGE
;Z:0.25
;HEIGHT:0.25
;BEFORE_LAYER_CHANGE
;0.25


G1 Z0.25 F18000
;AFTER_LAYER_CHANGE
;0.25
G92 E0
M104 S205 T0 ; set temperature
M73 P4 R8
G1 E-0.75 F3000
G1 Z0.65 F18000
; printing object EM_Cube-Unlabeled.stl id:0 copy 0
EXCLUDE_OBJECT_START NAME=EM_Cube_Unlabeled_stl_id_0_copy_0
M204 S1000
G1 X136.393 Y136.393
G1 Z0.25
G1 E0.75 F1800
;TYPE:Internal perimeter
;WIDTH:0.56
M107
G1 X163.607 Y136.393 E1.33345
M73 P4 R7
G1 X163.607 Y163.607 E1.33345
G1 X136.393 Y163.607 E1.33345
G1 X136.393 Y136.453 E1.33051
M107
G1 X135.886 Y135.886 F18000
M107
G1 F1800
G1 X164.114 Y135.886 E1.38307
M73 P5 R7
G1 X164.114 Y164.114 E1.38307
G1 X135.886 Y164.114 E1.38307
G1 X135.886 Y135.946 E1.38013
M107
G1 X135.38 Y135.38 F18000
;TYPE:External perimeter
M107
G1 F1800
G1 X164.62 Y135.38 E1.43269
G1 X164.62 Y164.62 E1.43269
M73 P6 R7
G1 X135.38 Y164.62 E1.43269
G1 X135.38 Y135.44 E1.42975
M107
;WIPE_START
M204 S1500
G1 X135.726 Y135.58 F18000
;WIPE_END
G1 E-0.75 F3000
G1 Z0.65 F18000
; acceleration to travel
G1 X151.734 Y136.174
; decel to extrusion
M204 S1000
G1 X162.407 Y136.57
; end travel
G1 Z0.25
G1 E0.75 F1800
;TYPE:Solid infill
;WIDTH:0.551222
M107
G1 X163.212 Y137.376 E0.05496
G1 X163.212 Y138.092 E0.03454
G1 X161.908 Y136.788 E0.08895
G1 X161.192 Y136.788 E0.03454
G1 X163.212 Y138.808 E0.1378
G1 X163.212 Y139.524 E0.03454
G1 X160.476 Y136.788 E0.18664
G1 X159.76 Y136.788 E0.03454
G1 X163.212 Y140.24 E0.23548
G1 X163.212 Y140.956 E0.03454
G1 X159.044 Y136.788 E0.28432
G1 X158.328 Y136.788 E0.03454
G1 X163.212 Y141.672 E0.33316
G1 X163.212 Y142.388 E0.03454
G1 X157.612 Y136.788 E0.38201
G1 X156.896 Y136.788 E0.03454
G1 X163.212 Y143.104 E0.43085
M73 P7 R7
G1 X163.212 Y143.821 E0.03454
G1 X156.179 Y136.788 E0.47969
G1 X155.463 Y136.788 E0.03454
G1 X163.212 Y144.537 E0.52853
G1 X163.212 Y145.253 E0.03454
G1 X154.747 Y136.788 E0.57737
G1 X154.031 Y136.788 E0.03454
G1 X163.212 Y145.969 E0.62622
G1 X163.212 Y146.685 E0.03454
G1 X153.315 Y136.788 E0.67506
G1 X152.599 Y136.788 E0.03454
G1 X163.212 Y147.401 E0.7239
G1 X163.212 Y148.117 E0.03454
G1 X151.883 Y136.788 E0.77274
G1 X151.167 Y136.788 E0.03454
G1 X163.212 Y148.833 E0.82158
G1 X163.212 Y149.549 E0.03454
G1 X150.451 Y136.788 E0.87043
M73 P8 R7
G1 X149.735 Y136.788 E0.03454
G1 X163.212 Y150.265 E0.91927
G1 X163.212 Y150.981 E0.03454
G1 X149.019 Y136.788 E0.96811
G1 X148.303 Y136.788 E0.03454
G1 X163.212 Y151.697 E1.01695
G1 X163.212 Y152.414 E0.03454
G1 X147.586 Y136.788 E1.06579
G1 X146.87 Y136.788 E0.03454
G1 X163.212 Y153.13 E1.11463
G1 X163.212 Y153.846 E0.03454
G1 X146.154 Y136.788 E1.16348
G1 X145.438 Y136.788 E0.03454
G1 X163.212 Y154.562 E1.21232
M73 P9 R7
G1 X163.212 Y155.278 E0.03454
G1 X144.722 Y136.788 E1.26116
G1 X144.006 Y136.788 E0.03454
G1 X163.212 Y155.994 E1.31
G1 X163.212 Y156.71 E0.03454
G1 X143.29 Y136.788 E1.35884
G1 X142.574 Y136.788 E0.03454
G1 X163.212 Y157.426 E1.40769
G1 X163.212 Y158.142 E0.03454
G1 X141.858 Y136.788 E1.45653
M73 P10 R7
G1 X141.142 Y136.788 E0.03454
G1 X163.212 Y158.858 E1.50537
G1 X163.212 Y159.574 E0.03454
G1 X140.426 Y136.788 E1.55421
G1 X139.71 Y136.788 E0.03454
G1 X163.212 Y160.29 E1.60305
G1 X163.212 Y161.007 E0.03454
G1 X138.993 Y136.788 E1.6519
M73 P11 R7
G1 X138.277 Y136.788 E0.03454
G1 X163.212 Y161.723 E1.70074
G1 X163.212 Y162.439 E0.03454
G1 X137.561 Y136.788 E1.74958
G1 X136.845 Y136.788 E0.03454
G1 X163.212 Y163.155 E1.79842
G1 X163.212 Y163.212 E0.00278
G1 X162.554 Y163.212 E0.03176
G1 X136.788 Y137.446 E1.75743
M73 P12 R7
G1 X136.788 Y138.162 E0.03454
G1 X161.838 Y163.212 E1.70859
G1 X161.122 Y163.212 E0.03454
G1 X136.788 Y138.878 E1.65975
G1 X136.788 Y139.594 E0.03454
G1 X160.406 Y163.212 E1.61091
G1 X159.69 Y163.212 E0.03454
G1 X136.788 Y140.31 E1.56206
M73 P13 R7
G1 X136.788 Y141.027 E0.03454
G1 X158.973 Y163.212 E1.51322
G1 X158.257 Y163.212 E0.03454
G1 X136.788 Y141.743 E1.46438
G1 X136.788 Y142.459 E0.03454
G1 X157.541 Y163.212 E1.41554
G1 X156.825 Y163.212 E0.03454
G1 X136.788 Y143.175 E1.3667
G1 X136.788 Y143.891 E0.03454
G1 X156.109 Y163.212 E1.31785
M73 P14 R7
G1 X155.393 Y163.212 E0.03454
G1 X136.788 Y144.607 E1.26901
G1 X136.788 Y145.323 E0.03454
G1 X154.677 Y163.212 E1.22017
G1 X153.961 Y163.212 E0.03454
G1 X136.788 Y146.039 E1.17133
G1 X136.788 Y146.755 E0.03454
G1 X153.245 Y163.212 E1.12249
G1 X152.529 Y163.212 E0.03454
G1 X136.788 Y147.471 E1.07364
G1 X136.788 Y148.187 E0.03454
G1 X151.813 Y163.212 E1.0248
M73 P15 R7
G1 X151.096 Y163.212 E0.03454
G1 X136.788 Y148.904 E0.97596
G1 X136.788 Y149.62 E0.03454
G1 X150.38 Y163.212 E0.92712
G1 X149.664 Y163.212 E0.03454
G1 X136.788 Y150.336 E0.87828
G1 X136.788 Y151.052 E0.03454
G1 X148.948 Y163.212 E0.82944
G1 X148.232 Y163.212 E0.03454
G1 X136.788 Y151.768 E0.78059
G1 X136.788 Y152.484 E0.03454
G1 X147.516 Y163.212 E0.73175
G1 X146.8 Y163.212 E0.03454
G1 X136.788 Y153.2 E0.68291
G1 X136.788 Y153.916 E0.03454
G1 X146.084 Y163.212 E0.63407
M73 P16 R7
G1 X145.368 Y163.212 E0.03454
G1 X136.788 Y154.632 E0.58523
G1 X136.788 Y155.348 E0.03454
G1 X144.652 Y163.212 E0.53638
G1 X143.936 Y163.212 E0.03454
M73 P16 R6
G1 X136.788 Y156.064 E0.48754
G1 X136.788 Y156.78 E0.03454
G1 X143.22 Y163.212 E0.4387
G1 X142.503 Y163.212 E0.03454
G1 X136.788 Y157.497 E0.38986
G1 X136.788 Y158.213 E0.03454
G1 X141.787 Y163.212 E0.34102
G1 X141.071 Y163.212 E0.03454
G1 X136.788 Y158.929 E0.29217
G1 X136.788 Y159.645 E0.03454
G1 X140.355 Y163.212 E0.24333
G1 X139.639 Y163.212 E0.03454
G1 X136.788 Y160.361 E0.19449
G1 X136.788 Y161.077 E0.03454
G1 X138.923 Y163.212 E0.14565
G1 X138.207 Y163.212 E0.03454
G1 X136.788 Y161.793 E0.09681
G1 X136.788 Y162.509 E0.03454
G1 X137.709 Y163.43 E0.06281
M107
M106 S153
;LAYER_CHANGE
;Z:0.45
;HEIGHT:0.2
;BEFORE_LAYER_CHANGE
;0.45


; stop printing object EM_Cube-Unlabeled.stl id:0 copy 0
EXCLUDE_OBJECT_END NAME=EM_Cube_Unlabeled_stl_id_0_copy_0
M204 S1500
G1 Z0.45 F18000
;AFTER_LAYER_CHANGE
;0.45
G92 E0
M140 S55 ; set bed temperature
; printing object EM_Cube-Unlabeled.stl id:0 copy 0
EXCLUDE_OBJECT_START NAME=EM_Cube_Unlabeled_stl_id_0_copy_0
G1 X136.051 Y163.949
;TYPE:Internal perimeter
;WIDTH:0.46292
M106 S153
G1 F6000
G1 X136.051 Y136.051 E0.90703
G1 X163.949 Y136.051 E0.90703
G1 X163.949 Y163.949 E0.90703
G1 X136.111 Y163.949 E0.90508
M106 S153
M73 P17 R6
G1 X135.631 Y164.369 F18000
M106 S153
G1 F6000
G1 X135.631 Y135.631 E0.93434
G1 X164.369 Y135.631 E0.93434
G1 X164.369 Y164.369 E0.93434
G1 X135.691 Y164.369 E0.93239
M106 S153
G1 X135.221 Y164.779 F18000
;TYPE:External perimeter
;WIDTH:0.44292
M106 S153
G1 F2400
G1 X135.221 Y135.221 E0.91524
G1 X164.779 Y135.221 E0.91524
G1 X164.779 Y164.779 E0.91524
G1 X135.281 Y164.779 E0.91338
M106 S153
;WIPE_START
G1 X135.421 Y164.432 F18000
;WIPE_END
G1 X162.949 Y163.798
;TYPE:Solid infill
;WIDTH:0.457229
M106 S153
G1 F7200
G1 X163.617 Y163.129 E0.03036
G1 X163.617 Y162.535 E0.01907
M73 P18 R6
G1 X162.535 Y163.617 E0.04913
G1 X161.941 Y163.617 E0.01907
G1 X163.617 Y161.941 E0.07611
G1 X163.617 Y161.347 E0.01907
G1 X161.347 Y163.617 E0.10308
G1 X160.753 Y163.617 E0.01907
G1 X163.617 Y160.753 E0.13006
G1 X163.617 Y160.159 E0.01907
G1 X160.159 Y163.617 E0.15703
G1 X159.565 Y163.617 E0.01907
G1 X163.617 Y159.565 E0.18401
G1 X163.617 Y158.971 E0.01907
G1 X158.971 Y163.617 E0.21098
G1 X158.377 Y163.617 E0.01907
G1 X163.617 Y158.377 E0.23796
G1 X163.617 Y157.783 E0.01907
G1 X157.783 Y163.617 E0.26493
G1 X157.189 Y163.617 E0.01907
G1 X163.617 Y157.189 E0.29191
G1 X163.617 Y156.595 E0.01907
G1 X156.595 Y163.617 E0.31889
G1 X156.001 Y163.617 E0.01907
G1 X163.617 Y156.001 E0.34586
G1 X163.617 Y155.408 E0.01907
G1 X155.408 Y163.617 E0.37284
G1 X154.814 Y163.617 E0.01907
G1 X163.617 Y154.814 E0.39981
G1 X163.617 Y154.22 E0.01907
G1 X154.22 Y163.617 E0.42679
G1 X153.626 Y163.617 E0.01907
G1 X163.617 Y153.626 E0.45376
G1 X163.617 Y153.032 E0.01907
G1 X153.032 Y163.617 E0.48074
G1 X152.438 Y163.617 E0.01907
G1 X163.617 Y152.438 E0.50771
G1 X163.617 Y151.844 E0.01907
G1 X151.844 Y163.617 E0.53469
G1 X151.25 Y163.617 E0.01907
G1 X163.617 Y151.25 E0.56167
G1 X163.617 Y150.656 E0.01907
G1 X150.656 Y163.617 E0.58864
G1 X150.062 Y163.617 E0.01907
G1 X163.617 Y150.062 E0.61562
G1 X163.617 Y149.468 E0.01907
G1 X149.468 Y163.617 E0.64259
G1 X148.874 Y163.617 E0.01907
G1 X163.617 Y148.874 E0.66957
G1 X163.617 Y148.28 E0.01907
G1 X148.28 Y163.617 E0.69654
G1 X147.686 Y163.617 E0.01907
G1 X163.617 Y147.686 E0.72352
M73 P19 R6
G1 X163.617 Y147.092 E0.01907
G1 X147.092 Y163.617 E0.75049
G1 X146.498 Y163.617 E0.01907
G1 X163.617 Y146.498 E0.77747
G1 X163.617 Y145.904 E0.01907
G1 X145.904 Y163.617 E0.80445
G1 X145.31 Y163.617 E0.01907
G1 X163.617 Y145.31 E0.83142
G1 X163.617 Y144.716 E0.01907
G1 X144.716 Y163.617 E0.8584
G1 X144.122 Y163.617 E0.01907
G1 X163.617 Y144.122 E0.88537
G1 X163.617 Y143.528 E0.01907
G1 X143.528 Y163.617 E0.91235
G1 X142.934 Y163.617 E0.01907
G1 X163.617 Y142.934 E0.93932
G1 X163.617 Y142.34 E0.01907
G1 X142.34 Y163.617 E0.9663
G1 X141.746 Y163.617 E0.01907
G1 X163.617 Y141.746 E0.99327
G1 X163.617 Y141.152 E0.01907
G1 X141.152 Y163.617 E1.02025
G1 X140.558 Y163.617 E0.01907
G1 X163.617 Y140.558 E1.04722
G1 X163.617 Y139.964 E0.01907
G1 X139.964 Y163.617 E1.0742
G1 X139.37 Y163.617 E0.01907
G1 X163.617 Y139.37 E1.10118
M73 P20 R6
G1 X163.617 Y138.776 E0.01907
G1 X138.776 Y163.617 E1.12815
G1 X138.182 Y163.617 E0.01907
G1 X163.617 Y138.182 E1.15513
G1 X163.617 Y137.588 E0.01907
G1 X137.588 Y163.617 E1.1821
G1 X136.994 Y163.617 E0.01907
G1 X163.617 Y136.994 E1.20908
G1 X163.617 Y136.401 E0.01907
G1 X136.383 Y163.617 E1.23645
G1 X136.383 Y163.04 E0.01851
G1 X163.04 Y136.383 E1.21066
G1 X162.446 Y136.383 E0.01907
G1 X136.383 Y162.446 E1.18369
G1 X136.383 Y161.853 E0.01907
G1 X161.853 Y136.383 E1.15671
G1 X161.259 Y136.383 E0.01907
G1 X136.383 Y161.259 E1.12974
G1 X136.383 Y160.665 E0.01907
G1 X160.665 Y136.383 E1.10276
G1 X160.071 Y136.383 E0.01907
G1 X136.383 Y160.071 E1.07579
G1 X136.383 Y159.477 E0.01907
G1 X159.477 Y136.383 E1.04881
G1 X158.883 Y136.383 E0.01907
G1 X136.383 Y158.883 E1.02184
M73 P21 R6
G1 X136.383 Y158.289 E0.01907
G1 X158.289 Y136.383 E0.99486
G1 X157.695 Y136.383 E0.01907
G1 X136.383 Y157.695 E0.96788
G1 X136.383 Y157.101 E0.01907
G1 X157.101 Y136.383 E0.94091
G1 X156.507 Y136.383 E0.01907
G1 X136.383 Y156.507 E0.91393
G1 X136.383 Y155.913 E0.01907
G1 X155.913 Y136.383 E0.88696
G1 X155.319 Y136.383 E0.01907
G1 X136.383 Y155.319 E0.85998
G1 X136.383 Y154.725 E0.01907
G1 X154.725 Y136.383 E0.83301
G1 X154.131 Y136.383 E0.01907
G1 X136.383 Y154.131 E0.80603
G1 X136.383 Y153.537 E0.01907
G1 X153.537 Y136.383 E0.77906
G1 X152.943 Y136.383 E0.01907
G1 X136.383 Y152.943 E0.75208
G1 X136.383 Y152.349 E0.01907
G1 X152.349 Y136.383 E0.7251
G1 X151.755 Y136.383 E0.01907
G1 X136.383 Y151.755 E0.69813
G1 X136.383 Y151.161 E0.01907
G1 X151.161 Y136.383 E0.67115
G1 X150.567 Y136.383 E0.01907
G1 X136.383 Y150.567 E0.64418
G1 X136.383 Y149.973 E0.01907
G1 X149.973 Y136.383 E0.6172
G1 X149.379 Y136.383 E0.01907
G1 X136.383 Y149.379 E0.59023
M73 P22 R6
G1 X136.383 Y148.785 E0.01907
G1 X148.785 Y136.383 E0.56325
G1 X148.191 Y136.383 E0.01907
G1 X136.383 Y148.191 E0.53628
G1 X136.383 Y147.597 E0.01907
G1 X147.597 Y136.383 E0.5093
G1 X147.003 Y136.383 E0.01907
G1 X136.383 Y147.003 E0.48232
G1 X136.383 Y146.409 E0.01907
G1 X146.409 Y136.383 E0.45535
G1 X145.815 Y136.383 E0.01907
G1 X136.383 Y145.815 E0.42837
G1 X136.383 Y145.221 E0.01907
G1 X145.221 Y136.383 E0.4014
G1 X144.627 Y136.383 E0.01907
G1 X136.383 Y144.627 E0.37442
G1 X136.383 Y144.033 E0.01907
G1 X144.033 Y136.383 E0.34745
G1 X143.439 Y136.383 E0.01907
G1 X136.383 Y143.439 E0.32047
G1 X136.383 Y142.845 E0.01907
G1 X142.845 Y136.383 E0.2935
G1 X142.252 Y136.383 E0.01907
G1 X136.383 Y142.252 E0.26652
G1 X136.383 Y141.658 E0.01907
G1 X141.658 Y136.383 E0.23954
G1 X141.064 Y136.383 E0.01907
G1 X136.383 Y141.064 E0.21257
G1 X136.383 Y140.47 E0.01907
G1 X140.47 Y136.383 E0.18559
G1 X139.876 Y136.383 E0.01907
G1 X136.383 Y139.876 E0.15862
G1 X136.383 Y139.282 E0.01907
G1 X139.282 Y136.383 E0.13164
G1 X138.688 Y136.383 E0.01907
G1 X136.383 Y138.688 E0.10467
G1 X136.383 Y138.094 E0.01907
G1 X138.094 Y136.383 E0.07769
G1 X137.5 Y136.383 E0.01907
G1 X136.383 Y137.5 E0.05072
G1 X136.383 Y136.906 E0.01907
G1 X137.086 Y136.202 E0.03194
M106 S153
;LAYER_CHANGE
;Z:0.65
;HEIGHT:0.2
;BEFORE_LAYER_CHANGE
;0.65


; stop printing object EM_Cube-Unlabeled.stl id:0 copy 0
EXCLUDE_OBJECT_END NAME=EM_Cube_Unlabeled_stl_id_0_copy_0
G1 Z0.65 F18000
;AFTER_LAYER_CHANGE
;0.65
G92 E0
; printing object EM_Cube-Unlabeled.stl id:0 copy 0
EXCLUDE_OBJECT_START NAME=EM_Cube_Unlabeled_stl_id_0_copy_0
G1 X136.051 Y136.051
;TYPE:Internal perimeter
;WIDTH:0.46292
M106 S153
G1 F6000
G1 X163.949 Y136.051 E0.90703
G1 X163.949 Y163.949 E0.90703
G1 X136.051 Y163.949 E0.90703
G1 X136.051 Y136.111 E0.90508
M106 S153
M73 P23 R6
G1 X135.631 Y135.631 F18000
M106 S153
G1 F6000
G1 X164.369 Y135.631 E0.93434
G1 X164.369 Y164.369 E0.93434
G1 X135.631 Y164.369 E0.93434
G1 X135.631 Y135.691 E0.93239
M106 S153
G1 X135.221 Y135.221 F18000
;TYPE:External perimeter
;WIDTH:0.44292
M106 S153
G1 F2400
G1 X164.779 Y135.221 E0.91524
G1 X164.779 Y164.779 E0.91524
G1 X135.221 Y164.779 E0.91524
G1 X135.221 Y135.281 E0.91338
M106 S153
;WIPE_START
G1 X135.568 Y135.421 F18000
;WIPE_END
G1 X136.202 Y162.914
;TYPE:Solid infill
;WIDTH:0.457229
M106 S153
M73 P24 R6
G1 F7200
G1 X136.906 Y163.617 E0.03194
G1 X137.5 Y163.617 E0.01907
G1 X136.383 Y162.5 E0.05072
G1 X136.383 Y161.906 E0.01907
G1 X138.094 Y163.617 E0.07769
G1 X138.688 Y163.617 E0.01907
G1 X136.383 Y161.312 E0.10467
G1 X136.383 Y160.718 E0.01907
G1 X139.282 Y163.617 E0.13164
G1 X139.876 Y163.617 E0.01907
G1 X136.383 Y160.124 E0.15862
G1 X136.383 Y159.53 E0.01907
G1 X140.47 Y163.617 E0.18559
G1 X141.064 Y163.617 E0.01907
G1 X136.383 Y158.936 E0.21257
G1 X136.383 Y158.342 E0.01907
G1 X141.658 Y163.617 E0.23954
G1 X142.252 Y163.617 E0.01907
G1 X136.383 Y157.748 E0.26652
G1 X136.383 Y157.155 E0.01907
G1 X142.845 Y163.617 E0.2935
G1 X143.439 Y163.617 E0.01907
G1 X136.383 Y156.561 E0.32047
G1 X136.383 Y155.967 E0.01907
G1 X144.033 Y163.617 E0.34745
G1 X144.627 Y163.617 E0.01907
G1 X136.383 Y155.373 E0.37442
G1 X136.383 Y154.779 E0.01907
G1 X145.221 Y163.617 E0.4014
G1 X145.815 Y163.617 E0.01907
G1 X136.383 Y154.185 E0.42837
G1 X136.383 Y153.591 E0.01907
G1 X146.409 Y163.617 E0.45535
G1 X147.003 Y163.617 E0.01907
G1 X136.383 Y152.997 E0.48232
G1 X136.383 Y152.403 E0.01907
G1 X147.597 Y163.617 E0.5093
